rusokon/images/icon-feat-7.svg

<svg xmlns="http://www.w3.org/2000/svg" width="52" height="52" viewBox="0 0 52 52"><defs><style>.cls-1{fill:none;stroke:#9e9e9e;stroke-miterlimit:10;}.cls-2{fill:#ff1a46;}</style></defs><title>icon-feat-7</title><path class="cls-1" d="M.5.5h50v50h-50z"/><path class="cls-2" d="M45.8 22.7h-3.7a13.75 13.75 0 0 0-1.3-4.5.82.82 0 0 0-.6-.4 18.85 18.85 0 0 0-12.2 4.2h-5.1a18.48 18.48 0 0 0-12.2-4.2.55.55 0 0 0-.6.4 17.83 17.83 0 0 0-1.3 4.5h-3.6a.68.68 0 0 0-.7.7v4.2a.68.68 0 0 0 .7.7h3.7a13.75 13.75 0 0 0 1.3 4.5.82.82 0 0 0 .6.4 18.85 18.85 0 0 0 12.2-4.2h5.1a18.48 18.48 0 0 0 12.2 4.2.55.55 0 0 0 .6-.4 17.83 17.83 0 0 0 1.3-4.5h3.7a.68.68 0 0 0 .7-.7v-4.2a.85.85 0 0 0-.8-.7zm-22.4.7h4.2v4.2h-4.2zm-17.5 3.5v-2.8h2.9l-.1 1.4a6.6 6.6 0 0 0 .1 1.4zm4.2-1.4a19 19 0 0 1 1.1-6.3 17.14 17.14 0 0 1 10.8 3.8v1.6a12 12 0 0 0-7.7-2.6.7.7 0 0 0 0 1.4 11.07 11.07 0 0 1 7.7 3.1v1.5a16.75 16.75 0 0 1-10.8 3.8 19 19 0 0 1-1.1-6.3zm29.7 6.3a17.14 17.14 0 0 1-10.8-3.8v-1.5a11.07 11.07 0 0 1 7.7-3.1.7.7 0 1 0 0-1.4 12.55 12.55 0 0 0-7.7 2.6v-1.6a16.75 16.75 0 0 1 10.8-3.8 18.2 18.2 0 0 1 0 12.6zm5.3-4.9h-2.9l.1-1.4a6.6 6.6 0 0 0-.1-1.4h2.9z"/></svg>

<svg id="Layer_1" data-name="Layer 1" xmlns="http://www.w3.org/2000/svg" width="52" height="52" viewBox="0 0 52 52"><defs><style>.cls-1{fill:none;stroke:#9e9e9e;stroke-miterlimit:10;}.cls-2{fill:#ff1a46;}</style></defs><title>icon-feat-7</title><rect class="cls-1" x="0.5" y="0.5" width="50" height="50"/><path class="cls-2" d="M45.8,22.7H42.1a13.75,13.75,0,0,0-1.3-4.5.82.82,0,0,0-.6-.4A18.85,18.85,0,0,0,28,22H22.9a18.48,18.48,0,0,0-12.2-4.2.55.55,0,0,0-.6.4,17.83,17.83,0,0,0-1.3,4.5H5.2a.68.68,0,0,0-.7.7h0v4.2a.68.68,0,0,0,.7.7H8.9a13.75,13.75,0,0,0,1.3,4.5.82.82,0,0,0,.6.4A18.85,18.85,0,0,0,23,29h5.1a18.48,18.48,0,0,0,12.2,4.2.55.55,0,0,0,.6-.4,17.83,17.83,0,0,0,1.3-4.5h3.7a.68.68,0,0,0,.7-.7h0V23.4a.85.85,0,0,0-.8-.7Zm-22.4.7h4.2v4.2H23.4ZM5.9,26.9V24.1H8.8c0,.5-.1.9-.1,1.4a6.6,6.6,0,0,0,.1,1.4Zm4.2-1.4a19,19,0,0,1,1.1-6.3A17.14,17.14,0,0,1,22,23v1.6A12,12,0,0,0,14.3,22a.7.7,0,0,0,0,1.4A11.07,11.07,0,0,1,22,26.5V28a16.75,16.75,0,0,1-10.8,3.8A19,19,0,0,1,10.1,25.5Zm29.7,6.3A17.14,17.14,0,0,1,29,28V26.5a11.07,11.07,0,0,1,7.7-3.1.7.7,0,1,0,0-1.4A12.55,12.55,0,0,0,29,24.6V23a16.75,16.75,0,0,1,10.8-3.8A18.2,18.2,0,0,1,39.8,31.8Zm5.3-4.9H42.2c0-.5.1-.9.1-1.4a6.6,6.6,0,0,0-.1-1.4h2.9Z"/></svg>
